X: 23295
T: Ledder Breeches
R: polka
M: 2/4
K: Gminor
d>c|BG GG|DG GA/B/|c/B/A/G/ ^F/G/A/B/|c2 d>c|
BG GG|DG GA/B/|c/B/A/G/ ^F/G/A/B/|c2 d z/c/|
dg g^f|gd dc|dg g^f|gd d>c|
dg g^f|gd dd/e/|=fF F/G/A/B/|c2 d>c|
BG GG|DG GA/B/|c/B/A/G/ ^F/G/A/B/|c2 d>c|
BG GG|DG Gg|g>d d>c|B>A G||

